!!!COM: Anon.
!!!OTL: Song When Making the Sweat Lodge
!!!ODT: <1918//
!!!MPN: Marolipa [Buffalo Bull Head, Ben Benson]
!!!MLC: Fort Berthold Reservation, North Dakota, United States of America
!! Song was recorded during either the summer of 1912, 1915, or 1918.
!!!AGN: monody
!!!AST: Songs Connected With Eagle Catching
!!!AMT: irregular
!!!RWG: Transcribed pitches, durations, and meters are only approximate.
!! Drum not recorded.
**kern
*ICvox
*Imale
*clefF4
*k[]
*M7/8
*MM84
8dL
8d
8dJ
*M5/8
=1
8dL
8d
8dJ
8cL
8cJ
*M7/8
=2
8cL
8c
8c
8cJ
8eL
8e
8eJ
*M5/8
=3
8cL
8c
8cJ
8cL
8cJ
*M7/8
=4
8cL
8c
8c
8GJ
8cL
8c
8cJ
*M5/8
=5
8AL
8A
8AJ
8AL
8AJ
*M4/8
=6
8cL
8c
8c
8cJ
*M7/8
=7
16eLL
16cJ
8cJ
8cL
8cJ
8cL
8c
8cL
*M5/8
=8
8AL
8A
8AJ
8AL
8AJ
*M7/8
=9
8cL
8AJ
8AL
8AJ
8cL
8A
8cJ
*M5/8
=10
8AL
8A
8AJ
8AL
8AJ
*M7/8
=11
8AL
8A
8A
8AJ
8cL
8c
8cJ
*M6/8
=12
8AL
8A
8GJ
8AL
8A
8AJ
=13
8AL
[8G
8G]J
4.r
==
*-
!!!CNT: Mandan
!!!TXO: Mandan
!!!OCY: United States
!!!OCL: Frances Densmore
!!!YOR: Frances Densmore, "Mandan and Hidatsa Music",
!!!YOR: Bulletin 80, page 75, No. 24
!!!PPR: Smithsonian Institution, Bureau of American Ethnology
!!!PPR: Government Printing Office
!!!PDT: 1923
!!!PPP: Washington, DC, United States of America
!!!YEC: Electronic Copyright 2000 David Huron
!!!YER: August 2000
!!!YEN: United States of America
!!!ENC: David Huron
!!!RDT: August 16, 2000
!!!EEV: Release 1.0
!!!AIN: tom, vox
